X:1
T:James Gibb editions
T:Justitiae Domini - Scarlatti
T:#
%%score [ 1 2 3 4 ]
L:1/8
Q:1/4=160
M:none
K:D
V:1 treble nm="Soprano" snm="S"
V:2 treble nm="Alto" snm="A"
V:3 treble-8 nm="Tenor" snm="T"
V:4 bass nm="Bass" snm="B"
V:1
"^Justitiae Domini""^Alessandro Scarlatti\n(1660-1725)" F4 F6 F2 F4 | (F6 G2 A8- | A4 ^G2) F2 G8 | %3
w: Ju- sti- ti- ae|Do\- * *|* mi- ni re-|
 A16 | z16 |[M:4/2] z2 d2 d2 e2 | (B2 c2 A2) c2 d4 c4 | z8 z2 A2 B2 B2 | (F2 G2 A6 G2 B2) A2 | %9
w: ctae,||lae- ti- fi-|can\- * * tes cor- da,|lae- ti- fi-|can\- * * * * tes|
 (A3 G F2 B2 E4) A4 | z4 z2 d2 d2 e2 (B2 c2 | d3 c) B2 (A4 ^GF G4) | A8 || z16 | z16 | z8 d6 c2 | %16
w: cor\- * * * * da,|lae- ti- fi- can\- *|* * tes cor\- * * *|da;|||et- ju-|
 B3 B A4 (G6 F2 | B6 AG A8) | G8 z4 G4- | G4 G4 (G4 F2 E2 | =F8) | E16 | z4 B8 E4 | e16 | %24
w: di- ci- a e\- *||jus dul\-|* ci- o\- * *||ra|su- per|mel,|
 z4 A8 E4 | e12 (d2 c2) | (d6 c2 B8) | B12 d4 | ^G4 A8 G4 | (A2 E2 =G8 F4 | G4 A4 B8 | %31
w: su- per|mel et *|fa\- * *|vum, su-|per mel et|fa\- * * *||
 F2 ^G2 A8 G2 F2 | ^G8) | A16 || A6 G2 F8 | F4 B6 ^A2 A4 | B16 | e6 d2 (c2 BA B4) | E4 A8 A4 | %39
w: ||vum.|Nam et ser-|vus, ser- vus tu-|us,|nam et ser\- * * *|vus, ser- vus|
 (A8 | B6 c2 d8) | c4 c6 B2 (B4- | B4 ^A4) B8 | B4 ^G4 E4 (e4- | e2 dc d8)[Q:1/4=158] D4 | %45
w: tu\-|* * us|cu- sto- dit e\-|* * a,|cu- sto- dit e\-|* * * * a,|
[Q:1/4=155] A4[Q:1/4=151] A8[Q:1/4=147] A4 |[Q:1/4=140] A16 |[Q:1/4=136] A16 |] %48
w: cu- sto- dit|e-|a.|
V:2
 D4 D6 D2 D4 | (D2 C2 D2 E2 F4 E4 | D6) D2 D8 | E8 E8 | z8 z4 z2 A2 |[M:4/2] A2 B2 (F2 G2- | %6
w: Ju- sti- ti- ae|Do\- * * * * *|* mi- ni|re- ctae,|lae-|ti- fi- can\- *|
 G2 A2) (A6 ^G2) A4 | z2 D2 D2 E2 (B,2 C2 D4 | C2 D2 E2 F4 E2 G2 FE | F3 G A2 E2 G2 FE F4) | %10
w: * tes cor\- * da,|lae- ti- fi- can\- * *|||
 E2 A4 A2 B2 (G4 FE | F6) E2 D8 | E8 || A6 ^G2 F3 F E4 | (D6 C2 F6 ED) | E8 D8 | F6 E2 D3 D C4 | %17
w: tes, lae- ti- fi- can\- * *|* tes cor-|da;|et- ju- di- ci- a|e\- * * * *|* jus,|et- ju- di- ci- a|
 (D2 B,2 E8 ^D4) | E8 z4 E4- | E4 E4 (E8- | E4 D4- | D4 =C4 B,8-) | B,8 z8 | z8 z4 A4- | %24
w: e\- * * *|jus dul\-|* ci- o\-||* * ra||su\-|
 A4 C4 E6 F2 | (G4 F2 E2 F6 E2 | F16) | E8 =F8 | (E16- | E8 D8 | E8 ^D4 E4- | E4 ^D4 E8- | E8) | %33
w: * per mel et|fa\- * * * *||vum, et|fa\-|||||
 E16 || z4 F6 E2 D4- | D4 D4 E8 | F4 F4 E8 | z16 | A6 G2 (F2 ED) E4 | (F4 A4- | A2 G2) F8 F4 | %41
w: vum,|Nam et ser\-|* vus, ser-|vus tu- us,||nam et ser\- * * vus,|ser\- *|* vus tu- us|
 z4 F4 D6 B,2 | C8 B,8- | B,8 z8 | A4 F4 D4 G4- | G4 F4 E2 A4 G2 | (=F8 E8) | F16 |] %48
w: cu- sto- dit|e- a,||cu- sto- dit e\-|* a, cu- sto- dit|e\- *|a,|
V:3
 A4 A6 A2 A4 | (A6 G2 F2 ^G2 A4 | B6) B2 B4 (d4- | d4 c2 B2) c8 | z4 z2 d2 d2 e2 (B2 c2 | %5
w: Ju- sti- ti- ae|Do\- * * * *|* mi- ni re\-|* * * ctae,|lae- ti- fi- can\- *|
[M:4/2][K:treble-8] d6 B2 | (e4 f2 e2 d4) e2 A2 | A2 B2 F2 G4 A2 F2 G2 | A2 B2 c2 d2 B3 c d2 e2) | %9
w: * tes|cor\- * * * da, lae-|ti- fi- can\- * * * *||
 A2 d2 d2 e2 B2 c2 (d4- | d2 c2 d4) B4 z2 A2 | A2 B2 F2 A2 B8 | c8 || z8 c6 B2 | %14
w: tes lae- ti- fi- can- tes cor\-|* * * da, lae-|ti- fi- can- tes cor-|da;|et- ju-|
 A3 A ^G4 (A2 F2 B4- | B4 ^A4) B8 | d6 c2 B3 B A4 | (G6 FE F8) | E8 z4 B4- | B4 B4 (A8- | A4 B4 | %21
w: di- ci- a e\- * *|* * jus,|et- ju- di- ci- a|e\- * * *|jus dul\-|* ci- o\-||
 ^G4 A8 G2 F2 | ^G8) z8 | e4 ^G4 B4 (c2 B2) | (c2- d2 e6 d2 c4- | c2 B2 A6 G2 F2 G2) | %26
w: |ra|su- per mel et *|fa\- * * * *||
 A4 (A8 ^G2 F2) | ^G4 B6 =c2 B2 A2 | (B4 =c4 B8 | A12 B4- | B4 A8 G2 A2 | B16- | B2 c2 d4- | %33
w: vum, fa\- * *|vum, su- * per mei|et * *|||||
 d4 c2 B2 c8) || z4 d6 c2 B4- | B4 B4 c8 | ^d4 d4 e4 e4- | e2 d2 c4 c4 (d4- | d2 c4 e2 A2 d4 c2) | %39
w: * * * vum,|Nam et ser\-|* vus, ser-|vus tu- us, nam|* et ser- vus, ser\-||
 d8 | B8 A8 | ^A8 B6 G2 | F8 B4 B4 | ^G6 E2 (A6 =G2 | F2 G2 A4) B8 | c4 (d6 cB) c2 (e2- | %46
w: vus|tu- us|cu- sto- dit|e- a, cu-|sto- dit e\- *|* * * a,|cu- sto\- * * dit e\-|
 e2 dc d8 c4) | d16 |] %48
w: |a.|
V:4
 D,4 D,6 D,2 D,4 | (F,6 E,2 D,4 C,4 | B,,6) B,,2 B,,8 | A,,8 A,,8 | z2 A,2 A,2 B,2 (F,2 G,4 A,2 | %5
w: Ju- sti- ti- ae|Do\- * * *|* mi- ni|re- ctae,|lae- ti- fi- can\- * *|
[M:4/2] F,2 G,2) B,2 (E,2- | E,2 A,2 D,2 C,2 B,,4 A,,4) | z16 | z4 z2 D,2 D,2 E,2 B,,2 (C,2 | %9
w: * * tes cor\-|* * * * * da,||lae- ti- fi- can\- *|
 D,2 F,4 G,4 A,2 F,2) D,2 | (A,3 G, F,4 G,6 A,2 | D,6 C,2 B,,8) | A,,8 || z8 A,6 ^G,2 | %14
w: * * * * * tes|cor\- * * * *||da;|et- ju-|
 F,3 F, E,4 (D,6 C,B,, | C,8) B,,8 | z16 | z16 | z4 E,8 E,4 | (E,6 D,2 C,8 | D,8) | E,16- | %22
w: di- ci- a e\- * *|* jus|||dul- ci-|o\- * *||ra|
 E,8 z8 | z4 E,8 A,,4 | A,16 | A,4 A,,4 D,8- | D,8 ^D,8 | (E,12 D,4- | D,4 =C,2 D,2 E,6 D,2 | %29
w: |su- per|mel,|su- per mel|* et|fa\- *||
 !courtesy!^C,8 D,8 | =C,8 B,,8- | B,,8 E,8- | E,8) | A,,16 || z16 | z16 | B,6 A,2 ^G,8 | %37
w: ||||vum,|||nam et ser-|
 E,4 A,6 A,2 ^G,4 | A,8 A,8 | D,8 | D,8 D,8 | z16 | z8 ^D,8 | E,8 C,8 | (D,6 C,2 B,,8) | %45
w: vus, ser- vus tu-|us, ser-|vus|tu- us||cu-|sto- dit|e\- * *|
 A,,8 A,4 A,4- | A,4 A,4 A,8 | D,16 |] %48
w: a, cu- sto\-|* dit e-|a.|

